svgs/getapps.svg

<svg xmlns="http://www.w3.org/2000/svg" viewBox="0 0 192 192"><path d="m175.5 69.982-77.532 77.923m27.024 27.595L46.28 95.737m49.457-49.802-79.237 79.5M68.713 16.5l80.025 80.288M95.934 74.056l.131 44.153 21.056-20.763" fill="none" stroke="#000" stroke-width="12" stroke-linecap="round" stroke-linejoin="round"/><path d="m96.197 74.056-.132 44.153L75.01 97.446" fill="none" stroke="#000" stroke-width="12" stroke-linecap="round" stroke-linejoin="round"/></svg>

<svg
    xmlns="http://www.w3.org/2000/svg"
    viewBox="0 0 192 192"
    id="vector">
    <path
        id="path"
        d="M 175.5 69.982 L 97.968 147.905 M 124.992 175.5 L 46.28 95.737 M 95.737 45.935 L 16.5 125.435 M 68.713 16.5 L 148.738 96.788 M 95.934 74.056 L 96.065 118.209 L 117.121 97.446"
        fill="none"
        stroke="#000000"
        stroke-width="12"
        stroke-linecap="round"
        stroke-linejoin="round"/>
    <path
        id="path_1"
        d="M 96.197 74.056 L 96.065 118.209 L 75.01 97.446"
        fill="none"
        stroke="#000000"
        stroke-width="12"
        stroke-linecap="round"
        stroke-linejoin="round"/>
</svg>
